static/images/mini-logo.svg

<?xml version="1.0" encoding="UTF-8" standalone="no"?>
<!DOCTYPE svg PUBLIC "-//W3C//DTD SVG 1.1//EN" "http://www.w3.org/Graphics/SVG/1.1/DTD/svg11.dtd">
<svg width="100%" height="100%" viewBox="0 0 237 30" version="1.1" xmlns="http://www.w3.org/2000/svg" xmlns:xlink="http://www.w3.org/1999/xlink" xml:space="preserve" xmlns:serif="http://www.serif.com/" style="fill-rule:evenodd;clip-rule:evenodd;stroke-linejoin:round;stroke-miterlimit:2;">
    <g transform="matrix(1,0,0,1,-0.943555,-0.359999)">
        <path d="M21.144,29L10.344,29C3.624,29 0.944,25.36 0.944,20.64C0.944,16.24 3.144,14.56 5.264,13.96C3.424,13.48 1.224,11.88 1.224,7.92C1.224,4.52 3.104,0.84 9.464,0.84L21.104,0.84L21.104,5.56L10.704,5.56C8.024,5.56 6.504,6.44 6.504,8.88C6.504,10.96 7.744,12.36 10.704,12.36L20.024,12.36L20.024,16.24L10.344,16.24C7.984,16.24 6.304,17.64 6.304,20.08C6.304,22.92 7.624,24.28 11.424,24.28L21.144,24.28L21.144,29ZM47.123,17.96L47.123,0.84L52.203,0.84L52.203,17.44C52.203,25.28 48.283,29.52 41.003,29.52C33.603,29.52 29.483,25.32 29.483,17.48L29.483,0.84L34.563,0.84L34.563,17.96C34.563,22.4 36.763,24.84 40.923,24.84C44.963,24.84 47.123,22.28 47.123,17.96ZM85.449,29L79.569,29L73.409,19.72L66.209,19.72L66.209,29L61.169,29L61.169,0.84L74.009,0.84C79.889,0.84 83.569,3.44 83.569,10.48C83.569,15.12 80.929,17.68 78.049,18.64L85.449,29ZM66.209,15.44L73.409,15.44C76.569,15.44 78.449,14.04 78.449,10.44C78.449,6.84 76.569,5.56 73.449,5.56L66.209,5.56L66.209,15.44ZM103.67,29.52C95.59,29.52 90.63,24.04 90.63,14.92C90.63,6.04 95.59,0.36 103.67,0.36C111.75,0.36 116.67,6.04 116.67,14.92C116.67,24.04 111.75,29.52 103.67,29.52ZM103.67,24.8C108.55,24.8 111.63,21.36 111.63,14.92C111.63,8.64 108.71,5.04 103.67,5.04C98.63,5.04 95.67,8.64 95.67,14.92C95.67,21.36 98.79,24.8 103.67,24.8ZM149.248,29L140.888,29L135.168,19.76L131.688,19.76L131.688,29L124.328,29L124.328,0.84L137.368,0.84C143.448,0.84 147.248,3.56 147.248,10.2C147.248,14.52 145.288,17.08 142.528,18.44L149.248,29ZM131.688,14.32L136.488,14.32C138.608,14.32 139.768,13.32 139.768,10.96C139.768,8.64 138.608,7.72 136.488,7.72L131.688,7.72L131.688,14.32ZM170.24,18.2L170.24,0.84L177.64,0.84L177.64,17.44C177.64,25.28 173.64,29.52 166.2,29.52C158.6,29.52 154.4,25.32 154.4,17.48L154.4,0.84L161.8,0.84L161.8,18.2C161.8,21.12 163.28,22.68 166.08,22.68C168.84,22.68 170.24,21.04 170.24,18.2ZM199.723,29L185.643,29L185.643,22.16L197.683,22.16C199.843,22.16 200.603,21.08 200.603,19.52C200.603,18 199.763,16.92 197.963,16.92L194.163,16.92C187.683,16.92 185.083,13.68 185.083,8.88C185.083,4.04 188.043,0.84 193.603,0.84L207.203,0.84L207.203,7.72L196.003,7.72C194.323,7.72 193.403,8.64 193.403,10.2C193.403,11.76 194.243,12.72 196.083,12.72L200.923,12.72C207.203,12.72 209.203,16.36 209.203,20.56C209.203,25.24 206.523,29 199.723,29ZM229.856,29L222.096,29L222.096,7.72L214.136,7.72L214.136,0.84L237.736,0.84L237.736,7.72L229.856,7.72L229.856,29Z" style="fill:rgb(14,16,37);fill-rule:nonzero;"/>
    </g>
</svg>

<svg clip-rule="evenodd" fill-rule="evenodd" stroke-linejoin="round" stroke-miterlimit="2" viewBox="0 0 237 30" xmlns="http://www.w3.org/2000/svg"><path d="m21.144 29h-10.8c-6.72 0-9.4-3.64-9.4-8.36 0-4.4 2.2-6.08 4.32-6.68-1.84-.48-4.04-2.08-4.04-6.04 0-3.4 1.88-7.08 8.24-7.08h11.64v4.72h-10.4c-2.68 0-4.2.88-4.2 3.32 0 2.08 1.24 3.48 4.2 3.48h9.32v3.88h-9.68c-2.36 0-4.04 1.4-4.04 3.84 0 2.84 1.32 4.2 5.12 4.2h9.72zm25.979-11.04v-17.12h5.08v16.6c0 7.84-3.92 12.08-11.2 12.08-7.4 0-11.52-4.2-11.52-12.04v-16.64h5.08v17.12c0 4.44 2.2 6.88 6.36 6.88 4.04 0 6.2-2.56 6.2-6.88zm38.326 11.04h-5.88l-6.16-9.28h-7.2v9.28h-5.04v-28.16h12.84c5.88 0 9.56 2.6 9.56 9.64 0 4.64-2.64 7.2-5.52 8.16zm-19.24-13.56h7.2c3.16 0 5.04-1.4 5.04-5s-1.88-4.88-5-4.88h-7.24zm37.461 14.08c-8.08 0-13.04-5.48-13.04-14.6 0-8.88 4.96-14.56 13.04-14.56s13 5.68 13 14.56c0 9.12-4.92 14.6-13 14.6zm0-4.72c4.88 0 7.96-3.44 7.96-9.88 0-6.28-2.92-9.88-7.96-9.88s-8 3.6-8 9.88c0 6.44 3.12 9.88 8 9.88zm45.578 4.2h-8.36l-5.72-9.24h-3.48v9.24h-7.36v-28.16h13.04c6.08 0 9.88 2.72 9.88 9.36 0 4.32-1.96 6.88-4.72 8.24zm-17.56-14.68h4.8c2.12 0 3.28-1 3.28-3.36 0-2.32-1.16-3.24-3.28-3.24h-4.8zm38.552 3.88v-17.36h7.4v16.6c0 7.84-4 12.08-11.44 12.08-7.6 0-11.8-4.2-11.8-12.04v-16.64h7.4v17.36c0 2.92 1.48 4.48 4.28 4.48 2.76 0 4.16-1.64 4.16-4.48zm29.483 10.8h-14.08v-6.84h12.04c2.16 0 2.92-1.08 2.92-2.64 0-1.52-.84-2.6-2.64-2.6h-3.8c-6.48 0-9.08-3.24-9.08-8.04 0-4.84 2.96-8.04 8.52-8.04h13.6v6.88h-11.2c-1.68 0-2.6.92-2.6 2.48s.84 2.52 2.68 2.52h4.84c6.28 0 8.28 3.64 8.28 7.84 0 4.68-2.68 8.44-9.48 8.44zm30.133 0h-7.76v-21.28h-7.96v-6.88h23.6v6.88h-7.88z" fill="#0e1025" fill-rule="nonzero" transform="translate(-.943555 -.359999)"/></svg>
